!! 00010] TT[TB
!! Eigene Aufnahme
!!!OTL: Li shu The fruit tree
!!!ARE: Neimeng
!! Ethnic Group: Menggu
!! MM, S. 760
!!!SCT: C0563
!!!YEM: Copyright 1995, estate of Helmut Schaffrath.
**kern
*ICvox
*Ivox
*M2/4
*k[]
*C:
{8a
8a
8g
8a
=1
8dd
8ee
4cc
=2
[2a
=3
2a]}
=4
{8a
8a
8g
8a
=5
8dd
8ee
4cc
=6
[2c
=7
2c]}
=8
{4d
8c
8A
=9
4.a
8dd
=10
8a
4g
8e
=11
8c
8d
4e}
=12
{8a
4g
8e
=13
8d
8e
4c
=14
[2A
=15
2A]}
==
!!!AGN: NN
!! Saenger: Chao Lun Batou, der das Buch nur zum Nachschlagen
!!    benutzte und ansonsten auswendig sang. Da er aus dem Osten der
!!    Neimeng kommt, kennt er nicht so viele Lieder des Westens.
!!    Alle Lieder wurden mit erkaelteter, halber Stimme in meinem
!!    Zimmer gesungen. FOTO VORHANDEN (DIAS)  31.3.87  Variante.
!!!ONB: ESAC (Essen Associative Code) Database: CHINA
!!!AMT: simple duple
!!!AIN: vox
!!!EED: Helmut Schaffrath
!!!EEV: 1.0
*-
!!!ONB: Tied note syntax fixed by Craig Sapp, 2004/05/03/
